web/packages/design/src/ResourceIcon/assets/kube.svg

<svg width="72" height="72" viewBox="0 0 72 72" fill="none" xmlns="http://www.w3.org/2000/svg">
<g clip-path="url(#clip0_6722_31933)">
<path fill-rule="evenodd" clip-rule="evenodd" d="M35.8286 1.13627C35.8536 1.13629 35.878 1.13631 35.9017 1.13631C36.652 1.13631 37.6947 1.2237 38.7027 1.7229L62.4816 13.1056L62.519 13.1256C64.062 13.9485 65.3874 15.3334 65.9534 17.1444L65.9751 17.2137L71.9351 42.8575L71.9477 42.9652C72.1567 44.7413 71.7403 46.5556 70.6638 48.0627L70.6301 48.1099L54.1867 68.4498C52.9709 70.0809 51.0505 71.0299 48.9667 70.8408H22.8382L22.781 70.8374C20.9555 70.7301 19.1893 69.8882 17.936 68.635L17.8633 68.5623L1.32906 48.1099L1.29531 48.0627C0.219206 46.5561 -0.220888 44.7042 0.105569 42.8543L0.113939 42.8069L5.9673 17.1301L5.96885 17.1235C6.41865 15.2119 7.67373 13.7226 9.36525 12.929L33.2889 1.39857L33.4824 1.3502C34.3425 1.13518 35.2506 1.13585 35.8286 1.13627Z" fill="white"/>
<path d="M35.826 40.7778L37.9288 39.7654L38.474 37.5068L36.9943 35.6376H34.6578L33.178 37.5068L33.7232 39.7654L35.826 40.7778Z" fill="#326DE6"/>
<path d="M50.9352 39.6096C51.0909 37.9741 51.013 36.3386 50.6236 34.703C50.2342 33.0675 49.6112 31.5099 48.7544 30.108L42.9133 35.404C42.7575 35.5597 42.6797 35.7155 42.6018 35.9492C42.446 36.6501 42.8354 37.351 43.5364 37.5068L50.9352 39.6096Z" fill="#326DE6"/>
<path d="M40.0317 31.7435L46.418 27.2264C44.0815 24.8899 41.0441 23.4101 37.6173 23.0207L38.0846 30.8868C38.0846 31.1205 38.1625 31.2762 38.3183 31.432C38.7077 31.9772 39.4865 32.055 40.0317 31.7435Z" fill="#326DE6"/>
<path d="M33.879 22.9428L32.3213 23.2544C29.5955 23.8774 27.1032 25.2793 25.0783 27.2264L31.5425 31.8214C31.5913 31.8377 31.6366 31.8539 31.68 31.8695C31.8446 31.9284 31.9807 31.9772 32.1656 31.9772C32.8665 31.9772 33.4896 31.432 33.4896 30.7311L33.879 22.9428Z" fill="#326DE6"/>
<path d="M28.583 35.2482L22.8197 30.108C21.1063 32.9896 20.3275 36.3386 20.5611 39.6096L28.1157 37.4289C28.4272 37.351 28.583 37.2731 28.7388 37.0395C29.2061 36.4943 29.1282 35.7155 28.583 35.2482Z" fill="#326DE6"/>
<path d="M29.2061 41.9461L21.4957 43.2701C22.5861 46.3854 24.7668 49.1112 27.4927 50.9025L30.4522 43.7374C30.6079 43.5037 30.6079 43.1922 30.5301 42.9585C30.4522 42.3355 29.8291 41.9461 29.2061 41.9461Z" fill="#326DE6"/>
<path d="M35.826 53.3169C36.9943 53.3169 38.0846 53.1611 39.175 52.9275C39.7201 52.7717 40.1874 52.6938 40.6547 52.6159L36.9164 45.8402C36.6827 45.6065 36.527 45.4508 36.2933 45.295C35.7481 44.9835 35.1251 45.1392 34.7357 45.6065L30.9195 52.538C32.4771 53.0053 34.1905 53.3169 35.826 53.3169Z" fill="#326DE6"/>
<path d="M44.0036 50.8246C45.8728 49.6564 47.5083 48.0209 48.6766 46.1517C49.2996 45.295 49.7669 44.2825 50.1563 43.1922L42.3681 41.8682C42.1345 41.8682 41.9008 41.9461 41.6672 42.024C41.122 42.2576 40.8105 42.8807 40.9662 43.5037L44.0036 50.8246Z" fill="#326DE6"/>
<path fill-rule="evenodd" clip-rule="evenodd" d="M61.6049 14.8432C62.7731 15.4663 63.7077 16.4787 64.0971 17.7248L70.0161 43.1923C70.1719 44.5163 69.8604 45.8403 69.0816 46.9306L52.6484 67.2579C51.7917 68.4261 50.4677 69.0492 49.0659 68.8934H22.8975C21.5735 68.8155 20.2495 68.1925 19.3149 67.2579L2.88181 46.9306C2.10299 45.8403 1.79146 44.5163 2.0251 43.1923L7.86626 17.5691C8.17779 16.2451 9.03449 15.2326 10.2027 14.6874L33.9567 3.23877C34.5798 3.08301 35.2807 3.08301 35.9038 3.08301C36.5269 3.08301 37.2278 3.16089 37.8508 3.47242L61.6049 14.8432ZM60.281 42.1018C60.281 42.1797 60.3589 42.1797 60.4368 42.1797C61.1377 42.3355 61.7608 42.9585 61.8386 43.8152C61.605 44.4383 60.9819 44.9056 60.281 44.9056C60.1252 44.9056 60.0474 44.9056 59.8916 44.8277C59.8468 44.7829 59.8278 44.7639 59.8049 44.7558C59.7879 44.7498 59.7689 44.7498 59.7358 44.7498C59.6446 44.7498 59.5801 44.7231 59.5266 44.701C59.4888 44.6853 59.4566 44.672 59.4243 44.672C59.1932 44.6142 59.005 44.5136 58.7961 44.4019C58.7233 44.363 58.6481 44.3228 58.5676 44.2825C58.4118 44.2825 58.2561 44.2047 58.1003 44.1268H58.0224C57.2436 43.8152 56.3869 43.5816 55.5302 43.4258H55.4523C55.2187 43.4258 54.985 43.5037 54.8293 43.6595C54.8293 43.6595 54.8293 43.7374 54.7514 43.7374L54.1283 43.6595C52.7264 48.0988 49.689 51.8371 45.7171 54.2514L45.9507 54.8745C45.9507 54.8745 45.8728 54.8745 45.8728 54.9524C45.7171 55.186 45.7171 55.4976 45.7949 55.7312C46.1065 56.51 46.4959 57.2888 47.041 57.9898V58.1455C47.1968 58.3013 47.2747 58.3792 47.3526 58.535C47.5862 58.7686 47.742 59.0023 47.8977 59.3138C47.9756 59.3917 48.0535 59.4696 48.0535 59.5474C48.0535 59.5474 48.1314 59.5474 48.1314 59.6253C48.2872 60.0147 48.2872 60.4041 48.2093 60.7935C48.1314 61.183 47.8199 61.4945 47.5083 61.6502C47.4596 61.6665 47.4142 61.6828 47.3708 61.6983C47.2063 61.7573 47.0702 61.806 46.8853 61.806C46.2622 61.806 45.7171 61.4166 45.4055 60.8714C45.3276 60.8714 45.3276 60.7935 45.3276 60.7935C45.2887 60.7546 45.2692 60.7157 45.2498 60.6767C45.2303 60.6378 45.2108 60.5988 45.1719 60.5599C45.0161 60.3263 44.9382 60.0147 44.8603 59.7032L44.7046 59.2359V59.158C44.4709 58.3013 44.0815 57.5225 43.6921 56.7437C43.5364 56.51 43.3027 56.3543 43.0691 56.2764C43.0691 56.1985 43.0691 56.1985 42.9912 56.1985L42.6797 55.6533C42.4815 55.7128 42.2783 55.7773 42.0713 55.843C41.4649 56.0354 40.8261 56.2381 40.1874 56.3543C38.7855 56.7437 37.3837 56.8994 35.9818 56.8994C33.6453 56.8994 31.3868 56.51 29.2061 55.6533L28.8945 56.2764C28.8945 56.3153 28.8945 56.3348 28.8848 56.3445C28.8751 56.3543 28.8556 56.3543 28.8166 56.3543C28.583 56.4321 28.3494 56.5879 28.1936 56.8216C27.8042 57.6004 27.4148 58.3792 27.1811 59.2359L27.0254 59.7032C26.9864 59.859 26.928 59.9953 26.8696 60.1315C26.8112 60.2678 26.7528 60.4041 26.7138 60.5599C26.636 60.6378 26.5581 60.7157 26.5581 60.7935C26.4802 60.7935 26.4802 60.8714 26.4802 60.8714C26.1687 61.4166 25.6235 61.806 25.0004 61.806C24.8447 61.806 24.611 61.7281 24.4553 61.6502C23.7543 61.2608 23.4428 60.3263 23.8322 59.5474C23.9101 59.5474 23.9101 59.4696 23.9101 59.4696C23.949 59.4306 23.9685 59.3917 23.988 59.3527C24.0074 59.3138 24.0269 59.2748 24.0658 59.2359C24.1683 59.0993 24.2558 58.9627 24.3348 58.8393C24.4361 58.6811 24.5235 58.5446 24.611 58.4571C24.7668 58.3013 24.8447 58.2234 24.9225 58.0677V57.9898C25.3898 57.2888 25.8571 56.51 26.1687 55.7312C26.2465 55.4976 26.2465 55.186 26.0908 54.9524C26.0908 54.9524 26.0129 54.9524 26.0129 54.8745L26.4023 54.3293C25.6235 53.9399 25.0004 53.4726 24.2995 52.9275C21.2621 50.591 19.0814 47.3978 17.9132 43.8152L17.2122 43.8931C17.2122 43.8931 17.2122 43.8152 17.1343 43.8152C16.9786 43.6595 16.7449 43.5816 16.5113 43.5816H16.4334C15.4988 43.7374 14.72 43.971 13.8633 44.2825H13.7854C13.6296 44.2825 13.4739 44.3604 13.3181 44.4383C13.2311 44.4673 13.1334 44.5071 13.0288 44.5496C12.8525 44.6214 12.657 44.7009 12.4614 44.7498C12.4378 44.7498 12.4 44.7427 12.3586 44.7349C12.2635 44.7169 12.1499 44.6955 12.1499 44.7498C12.1499 44.7888 12.1499 44.8082 12.1402 44.818C12.1304 44.8277 12.1109 44.8277 12.072 44.8277C11.9162 44.9056 11.8384 44.9056 11.6826 44.9056C10.9817 44.9835 10.2807 44.5162 10.125 43.8152C9.96919 42.9585 10.5144 42.1797 11.3711 42.024C11.4489 41.9461 11.4489 41.9461 11.5268 41.9461C11.6181 41.9461 11.6826 41.9194 11.736 41.8972C11.7738 41.8816 11.8061 41.8682 11.8384 41.8682C11.9941 41.8682 12.1499 41.8487 12.3057 41.8293C12.4614 41.8098 12.6172 41.7903 12.7729 41.7903C12.9287 41.7124 13.0845 41.7124 13.2402 41.7124C14.1748 41.6345 15.0315 41.4788 15.8882 41.2451C16.1219 41.0894 16.3555 40.9336 16.4334 40.7C16.4334 40.7 16.5113 40.7 16.5113 40.6221L17.1343 40.4663C16.4334 36.027 17.4459 31.5099 19.8602 27.6936C19.8992 27.6158 19.9381 27.5574 19.977 27.4989C20.016 27.4405 20.0549 27.3821 20.0939 27.3042L19.6418 26.8521C19.6773 26.6281 19.5351 26.3561 19.3929 26.2139C18.7699 25.5908 17.991 25.1235 17.2122 24.6562L16.7449 24.4226C16.4334 24.2668 16.1219 24.1111 15.8882 23.9553C15.8103 23.9553 15.6546 23.7995 15.6546 23.7995C15.6546 23.7995 15.6546 23.7217 15.5767 23.7217C14.9536 23.1765 14.7979 22.2419 15.2652 21.541C15.4988 21.1516 15.8882 20.9958 16.3555 20.9958C16.7449 20.9958 17.1343 21.1516 17.4459 21.3852L17.5237 21.4631C17.5627 21.502 17.6016 21.5215 17.6406 21.541C17.6795 21.5604 17.7185 21.5799 17.7574 21.6188C17.8742 21.7357 17.9716 21.8525 18.0689 21.9693C18.1663 22.0861 18.2636 22.203 18.3805 22.3198C18.404 22.3434 18.4347 22.3669 18.4683 22.3927C18.5455 22.452 18.6377 22.5227 18.692 22.6313C19.2372 23.2544 19.9381 23.8774 20.639 24.4226C20.7948 24.5005 20.9506 24.5784 21.1063 24.5784C21.1976 24.5784 21.2621 24.5516 21.3155 24.5295C21.3533 24.5138 21.3856 24.5005 21.4179 24.5005H21.4957L21.963 24.812C24.5331 22.0861 27.8821 20.1391 31.5425 19.3603C31.6774 19.3378 31.8107 19.3153 31.9426 19.2931C32.7244 19.1612 33.4575 19.0375 34.1905 18.9709L34.2684 18.3478V18.192C34.502 18.0363 34.5799 17.8026 34.6578 17.569C34.6578 16.6344 34.6578 15.7777 34.502 14.921V14.8431C34.502 14.6873 34.502 14.5316 34.4242 14.3758C34.3463 14.0643 34.2684 13.7528 34.2684 13.4412V13.0518C34.2684 12.6624 34.4242 12.273 34.7357 11.9615C35.1251 11.5721 35.5924 11.3384 36.0597 11.4163C36.8385 11.4942 37.4616 12.273 37.3837 13.0518V13.5191C37.3447 13.6749 37.3253 13.8306 37.3058 13.9864C37.2863 14.1422 37.2668 14.2979 37.2279 14.4537C37.2279 14.5316 37.2084 14.6095 37.189 14.6873C37.1695 14.7652 37.15 14.8431 37.15 14.921V14.9989C36.9943 15.9335 36.9943 16.7902 36.9943 17.6469C37.0721 17.8805 37.15 18.1142 37.3837 18.2699V18.192L37.4616 18.8151C41.122 19.2045 44.7046 20.6064 47.5862 22.865C47.8977 23.1765 48.2287 23.488 48.5597 23.7995C48.8907 24.1111 49.2217 24.4226 49.5333 24.7341L50.1563 24.3447H50.2342C50.3121 24.4226 50.4679 24.4226 50.5457 24.4226C50.7015 24.4226 50.8573 24.3447 51.013 24.2668C51.714 23.7995 52.4149 23.1765 52.9601 22.5534C52.9837 22.5299 53.0144 22.5063 53.0479 22.4805C53.1252 22.4212 53.2173 22.3505 53.2716 22.2419C53.4274 22.0083 53.661 21.7746 53.8947 21.541C53.9725 21.541 54.0504 21.4631 54.1283 21.3852L54.2062 21.3073C54.5177 21.0737 54.9071 20.9179 55.2965 20.9179C55.686 20.9179 56.1532 21.1516 56.3869 21.4631C56.9321 22.164 56.7763 23.0986 56.0754 23.6438C56.0754 23.6735 56.0867 23.6919 56.0964 23.7076C56.1121 23.733 56.1235 23.7514 56.0754 23.7995C56.0364 23.8385 55.9975 23.858 55.9585 23.8774C55.9196 23.8969 55.8807 23.9164 55.8417 23.9553C55.686 24.0332 55.5497 24.1111 55.4134 24.189C55.2771 24.2668 55.1408 24.3447 54.985 24.4226L54.5177 24.6562C53.7389 25.1235 53.038 25.5908 52.337 26.2139C52.1813 26.3697 52.1034 26.6812 52.1034 26.9148V26.9927L51.6361 27.46C52.8822 29.4071 53.8168 31.5878 54.362 33.8463C54.8293 36.1049 54.985 38.4414 54.6735 40.7L55.2965 40.8557C55.3744 41.0894 55.6081 41.323 55.8417 41.4009C56.6984 41.6345 57.633 41.7903 58.4897 41.8682H58.5676C58.7234 41.9461 58.8791 41.9461 59.0349 41.9461C59.3464 41.9461 59.6579 41.9461 59.9695 42.024C60.1252 42.024 60.281 42.024 60.281 42.1018ZM19.6418 26.8521L19.6266 26.8369V26.9148C19.6333 26.8945 19.6384 26.8735 19.6418 26.8521Z" fill="#326DE6"/>
</g>
<defs>
<clipPath id="clip0_6722_31933">
<rect width="72" height="72" fill="white"/>
</clipPath>
</defs>
</svg>

<svg xmlns="http://www.w3.org/2000/svg" width="72" height="72" fill="none" viewBox="0 0 72 72"><g clip-path="url(#a)"><path fill="#fff" fill-rule="evenodd" d="M35.829 1.136h.073c.75 0 1.793.088 2.8.587l23.78 11.383.037.02c1.543.822 2.868 2.207 3.434 4.018l.022.07 5.96 25.644.013.107c.209 1.776-.208 3.59-1.284 5.098l-.034.047-16.443 20.34c-1.216 1.63-3.136 2.58-5.22 2.39H22.838l-.057-.003c-1.825-.107-3.592-.949-4.845-2.202l-.073-.073L1.33 48.11l-.034-.047a6.86 6.86 0 0 1-1.19-5.209l.009-.047L5.967 17.13l.002-.006a6.13 6.13 0 0 1 3.396-4.195L33.29 1.399l.193-.049c.86-.215 1.769-.214 2.347-.214" clip-rule="evenodd"/><path fill="#326de6" d="m35.826 40.778 2.103-1.013.545-2.258-1.48-1.87h-2.336l-1.48 1.87.545 2.258zm15.109-1.168c.156-1.636.078-3.271-.311-4.907a15.8 15.8 0 0 0-1.87-4.595l-5.84 5.296c-.157.156-.234.311-.312.545-.156.701.233 1.402.934 1.558zm-10.903-7.866 6.386-4.518c-2.337-2.336-5.374-3.816-8.8-4.205l.467 7.866c0 .233.078.39.233.545.39.545 1.169.623 1.714.312m-6.153-8.801-1.558.311c-2.725.623-5.218 2.025-7.243 3.972l6.465 4.595.137.048c.165.06.3.108.486.108.7 0 1.324-.545 1.324-1.246zm-5.296 12.305-5.763-5.14a16.4 16.4 0 0 0-2.259 9.502l7.555-2.181c.311-.078.467-.156.623-.39.467-.545.39-1.324-.156-1.79m.623 6.697-7.71 1.324c1.09 3.115 3.27 5.841 5.997 7.633l2.96-7.166c.155-.233.155-.545.077-.779-.078-.622-.7-1.012-1.324-1.012m6.62 11.371c1.168 0 2.259-.156 3.349-.39a13 13 0 0 1 1.48-.311l-3.739-6.776c-.233-.234-.389-.39-.623-.545-.545-.312-1.168-.156-1.557.311l-3.816 6.932c1.557.467 3.27.779 4.906.779m8.178-2.492a14.9 14.9 0 0 0 4.673-4.673c.623-.857 1.09-1.87 1.48-2.96l-7.789-1.324c-.233 0-.467.078-.7.156-.546.234-.858.857-.702 1.48z"/><path fill="#326de6" fill-rule="evenodd" d="M61.605 14.843c1.168.623 2.103 1.636 2.492 2.882l5.92 25.467c.155 1.324-.157 2.648-.935 3.739L52.648 67.258c-.856 1.168-2.18 1.791-3.582 1.635H22.898c-1.325-.078-2.648-.7-3.583-1.635L2.882 46.93a4.9 4.9 0 0 1-.857-3.739L7.866 17.57a4.18 4.18 0 0 1 2.337-2.882L33.957 3.24c.623-.156 1.324-.156 1.947-.156s1.324.078 1.947.39zM60.28 42.102c0 .078.078.078.156.078.7.156 1.324.779 1.402 1.635a1.69 1.69 0 0 1-1.558 1.09c-.156 0-.234 0-.39-.077-.044-.045-.063-.064-.086-.072-.017-.006-.036-.006-.07-.006-.09 0-.155-.027-.208-.049a.3.3 0 0 0-.103-.029c-.23-.058-.419-.158-.628-.27q-.109-.06-.228-.12c-.156 0-.312-.077-.468-.155h-.078a13 13 0 0 0-2.492-.701h-.078a.88.88 0 0 0-.623.233s0 .078-.078.078l-.623-.078c-1.402 4.44-4.439 8.178-8.41 10.592l.233.624s-.078 0-.078.077c-.156.234-.156.546-.078.78.311.778.7 1.557 1.246 2.258v.155c.156.156.234.234.312.39.233.234.389.467.545.779.078.078.155.156.155.233 0 0 .078 0 .078.078.156.39.156.78.078 1.169s-.39.7-.7.856l-.138.048c-.165.06-.3.108-.486.108-.623 0-1.168-.39-1.48-.935-.077 0-.077-.078-.077-.078a.4.4 0 0 1-.078-.116.4.4 0 0 0-.078-.117c-.156-.234-.234-.545-.312-.857l-.155-.467v-.078c-.234-.857-.623-1.636-1.013-2.414a1.2 1.2 0 0 0-.623-.468c0-.078 0-.078-.078-.078l-.311-.545q-.299.09-.609.19c-.606.192-1.245.395-1.884.511-1.401.39-2.803.545-4.205.545-2.337 0-4.595-.389-6.776-1.246l-.311.623c0 .04 0 .059-.01.068s-.03.01-.068.01a1.2 1.2 0 0 0-.623.468c-.39.778-.78 1.557-1.013 2.414l-.156.467a3 3 0 0 1-.155.428 3 3 0 0 0-.156.429c-.078.078-.156.156-.156.233-.078 0-.078.078-.078.078-.311.546-.857.935-1.48.935-.155 0-.389-.078-.545-.156-.7-.39-1.012-1.324-.623-2.103.078 0 .078-.077.078-.077a.4.4 0 0 0 .078-.117.4.4 0 0 1 .078-.117c.102-.137.19-.273.269-.397.101-.158.188-.294.276-.382.156-.156.234-.234.311-.39v-.077c.468-.701.935-1.48 1.247-2.259.078-.233.078-.545-.078-.779 0 0-.078 0-.078-.078l.39-.545c-.78-.39-1.403-.856-2.104-1.401-3.037-2.337-5.218-5.53-6.386-9.113l-.7.078s0-.078-.079-.078a.88.88 0 0 0-.623-.233h-.078c-.934.155-1.713.389-2.57.7h-.078c-.155 0-.311.078-.467.156-.087.03-.185.07-.29.112a4 4 0 0 1-.567.2 1 1 0 0 1-.102-.015c-.095-.018-.21-.04-.21.015 0 .039 0 .058-.009.068-.01.01-.03.01-.068.01-.156.078-.234.078-.39.078-.7.078-1.401-.39-1.557-1.09a1.52 1.52 0 0 1 1.246-1.792c.078-.078.078-.078.156-.078a.5.5 0 0 0 .209-.049c.038-.015.07-.029.102-.029.156 0 .312-.02.468-.039.155-.02.311-.039.467-.039.156-.078.312-.078.467-.078a14.5 14.5 0 0 0 2.648-.467c.234-.156.467-.311.545-.545 0 0 .078 0 .078-.078l.623-.156c-.7-4.439.312-8.956 2.726-12.772.04-.078.078-.137.117-.195a2 2 0 0 0 .117-.195l-.452-.452c.035-.224-.107-.496-.25-.638-.622-.623-1.401-1.09-2.18-1.558l-.467-.233a9 9 0 0 1-.857-.468c-.078 0-.233-.155-.233-.155s0-.078-.078-.078c-.623-.546-.78-1.48-.312-2.181.234-.39.623-.545 1.09-.545.39 0 .78.156 1.09.39l.079.077a.4.4 0 0 0 .117.078c.039.02.078.039.116.078.117.117.215.233.312.35s.195.234.312.35q.036.035.087.074c.078.059.17.13.224.238.545.623 1.246 1.246 1.947 1.792.156.078.312.155.467.155a.5.5 0 0 0 .21-.049.3.3 0 0 1 .102-.029h.078l.467.312c2.57-2.726 5.92-4.673 9.58-5.452l.4-.067c.781-.132 1.515-.255 2.247-.322l.078-.623v-.156c.234-.156.312-.39.39-.623 0-.935 0-1.791-.156-2.648v-.078c0-.156 0-.311-.078-.467-.078-.312-.156-.623-.156-.935v-.39c0-.389.156-.778.468-1.09.39-.389.856-.623 1.324-.545.779.078 1.402.857 1.324 1.636v.467c-.04.156-.059.312-.078.467s-.04.312-.078.468c0 .078-.02.155-.039.233a1 1 0 0 0-.039.234v.078c-.156.934-.156 1.791-.156 2.648.078.234.156.467.39.623v-.078l.078.623c3.66.39 7.243 1.791 10.124 4.05.312.312.643.623.974.934s.662.624.973.935l.623-.39h.078c.078.079.234.079.312.079.156 0 .311-.078.467-.156a10.2 10.2 0 0 0 1.947-1.714q.037-.034.088-.073c.077-.059.17-.13.224-.238.155-.234.389-.467.623-.701.077 0 .155-.078.233-.156l.078-.078c.312-.233.701-.39 1.09-.39s.857.235 1.09.546c.546.701.39 1.636-.31 2.18 0 .03.01.049.02.065.016.025.028.043-.02.091a.4.4 0 0 1-.117.078.4.4 0 0 0-.117.078c-.156.078-.292.156-.429.234-.136.078-.272.156-.428.234l-.467.233c-.78.468-1.48.935-2.181 1.558-.156.156-.234.467-.234.7v.079l-.467.467a21.1 21.1 0 0 1 2.726 6.386c.467 2.259.623 4.595.311 6.854l.624.156a.94.94 0 0 0 .545.545c.856.233 1.791.39 2.648.467h.078c.155.078.311.078.467.078.311 0 .623 0 .934.078.156 0 .312 0 .312.078m-40.64-15.25-.014-.015v.078a.4.4 0 0 0 .015-.063" clip-rule="evenodd"/></g><defs><clipPath id="a"><path fill="#fff" d="M0 0h72v72H0z"/></clipPath></defs></svg>
